packages/art/svg/heart.svg

<svg id="eSWjtAMc6vP1" xmlns="http://www.w3.org/2000/svg" xmlns:xlink="http://www.w3.org/1999/xlink" viewBox="0 0 16 16" shape-rendering="geometricPrecision" text-rendering="geometricPrecision">
  <path d="M4,1h1v1h-1v-1Z" fill="#fdb58d"/>
  <path d="M2,3h1v1h-1v-1Z" fill="#fdb58d"/>
  <path d="M14,3h1v1h-1v-1Z" fill="#fdb58d"/>
  <path d="M2,5h1v1h-1v-1Z" fill="#fdb58d"/>
  <path d="M14,5h1v1h-1v-1Z" fill="#fdb58d"/>
  <path d="M3,7h1v1h-1v-1Z" fill="#fdb58d"/>
  <path d="M4,9h1v1h-1v-1Z" fill="#fdb58d"/>
  <path d="M8,13h1v1h-1v-1Z" fill="#fdb58d"/>
  <path d="M12,9h1v1h-1v-1Z" fill="#fdb58d"/>
  <path d="M6,11h1v1h-1v-1Z" fill="#fdb58d"/>
  <path d="M10,11h1v1h-1v-1Z" fill="#fdb58d"/>
  <path d="M5,1h1v1h-1v-1Z" fill="#fff"/>
  <path d="M14,6h1v1h-1v-1Z" fill="#fff"/>
  <path d="M5,10h1v1h-1v-1Z" fill="#fff"/>
  <path d="M7,12h1v1h-1v-1Z" fill="#fff"/>
  <path d="M9,12h1v1h-1v-1Z" fill="#fff"/>
  <path d="M11,10h1v1h-1v-1Z" fill="#fff"/>
  <path d="M3,8h1v1h-1v-1Z" fill="#fff"/>
  <path d="M13,7h1v1h-1v-1Z" fill="#fdb58d"/>
  <path d="M13,8h1v1h-1v-1Z" fill="#fff"/>
  <path d="M2,6h1v1h-1v-1Z" fill="#fff"/>
  <path d="M2,4h1v1h-1v-1Z" fill="#fff"/>
  <path d="M14,4h1v1h-1v-1Z" fill="#fff"/>
  <path d="M11,1h1v1h-1v-1Z" fill="#fff"/>
  <path d="M13,2h1v1h-1v-1Z" fill="#fff"/>
  <path d="M3,2h1v1h-1v-1Z" fill="#fff"/>
  <path d="M9,2h1v1h-1v-1Z" fill="#fff"/>
  <path d="M7,2h1v1h-1v-1Z" fill="#fff"/>
  <path d="M6,1h1v1h-1v-1Z" fill="#fdb58d"/>
  <path d="M12,1h1v1h-1v-1Z" fill="#fdb58d"/>
  <path d="M10,1h1v1h-1v-1Z" fill="#fdb58d"/>
  <path d="M8,3h1v1h-1v-1Z" fill="#fdb58d"/>
  <path d="M4,2h3v1h1v1h1v-1h1v-1h3v1h1v4h-1v2h-1v1h-1v1h-1v1h-1v1h-1v-1h-1v-1h-1v-1h-1v-1h-1v-2h-1v-4h1v-1Z" fill="#ff640d" stroke-width="0.5"/>
</svg>

<svg width="16" height="16" viewBox="0 0 16 16" fill="none" xmlns="http://www.w3.org/2000/svg">
<path d="M4 1H5V2H4V1Z" fill="#FDB58D"/>
<path d="M2 3H3V4H2V3Z" fill="#FDB58D"/>
<path d="M14 3H15V4H14V3Z" fill="#FDB58D"/>
<path d="M2 5H3V6H2V5Z" fill="#FDB58D"/>
<path d="M14 5H15V6H14V5Z" fill="#FDB58D"/>
<path d="M3 7H4V8H3V7Z" fill="#FDB58D"/>
<path d="M4 9H5V10H4V9Z" fill="#FDB58D"/>
<path d="M3 4H14V7H3V4Z" fill="#FF640D"/>
<path d="M4 2H7V4H4V2Z" fill="#FF640D"/>
<path d="M7 3H8V4H7V3Z" fill="#FF640D"/>
<path d="M8 12H9V13H8V12Z" fill="#FF640D"/>
<path d="M9 11H10V12H9V11Z" fill="#FF640D"/>
<path d="M8 11H9V12H8V11Z" fill="#FF640D"/>
<path d="M7 11H8V12H7V11Z" fill="#FF640D"/>
<path d="M11 9H12V10H11V9Z" fill="#FF640D"/>
<path d="M5 9H6V10H5V9Z" fill="#FF640D"/>
<path d="M13 3H14V4H13V3Z" fill="#FF640D"/>
<path d="M3 3H4V4H3V3Z" fill="#FF640D"/>
<path d="M9 3H10V4H9V3Z" fill="#FF640D"/>
<path d="M6 3H7V4H6V3Z" fill="#FF640D"/>
<path d="M10 2H13V4H10V2Z" fill="#FF640D"/>
<path d="M6 9H11V11H6V9Z" fill="#FF640D"/>
<path d="M4 7H13V9H4V7Z" fill="#FF640D"/>
<path d="M8 13H9V14H8V13Z" fill="#FDB58D"/>
<path d="M12 9H13V10H12V9Z" fill="#FDB58D"/>
<path d="M6 11H7V12H6V11Z" fill="#FDB58D"/>
<path d="M10 11H11V12H10V11Z" fill="#FDB58D"/>
<path d="M5 1H6V2H5V1Z" fill="white"/>
<path d="M14 6H15V7H14V6Z" fill="white"/>
<path d="M5 10H6V11H5V10Z" fill="white"/>
<path d="M7 12H8V13H7V12Z" fill="white"/>
<path d="M9 12H10V13H9V12Z" fill="white"/>
<path d="M11 10H12V11H11V10Z" fill="white"/>
<path d="M3 8H4V9H3V8Z" fill="white"/>
<path d="M13 7H14V8H13V7Z" fill="#FDB58D"/>
<path d="M13 8H14V9H13V8Z" fill="white"/>
<path d="M2 6H3V7H2V6Z" fill="white"/>
<path d="M2 4H3V5H2V4Z" fill="white"/>
<path d="M14 4H15V5H14V4Z" fill="white"/>
<path d="M11 1H12V2H11V1Z" fill="white"/>
<path d="M13 2H14V3H13V2Z" fill="white"/>
<path d="M3 2H4V3H3V2Z" fill="white"/>
<path d="M9 2H10V3H9V2Z" fill="white"/>
<path d="M7 2H8V3H7V2Z" fill="white"/>
<path d="M6 1H7V2H6V1Z" fill="#FDB58D"/>
<path d="M12 1H13V2H12V1Z" fill="#FDB58D"/>
<path d="M10 1H11V2H10V1Z" fill="#FDB58D"/>
<path d="M8 3H9V4H8V3Z" fill="#FDB58D"/>
<path d="M6 3H7V4H6V3Z" fill="#FF640D"/>
</svg>
